X:158
T:Tripping Up the Stairs
Z: id:dc-jig-135
M:6/8
L:1/8
K:D Major
A|FAA GBB|Ade fed|cdc ABc|dfe dAG|!
FAA GBB|Ade fed|cdc ABc|dfe d2:|!
c|dBB fBB|fgf fed|cAA eAA|a^ga edc|!
dBB fBB|fgf fed|cdc ABc|dfe d2:|!

